!!!OTL: 516. Das Huettchen.
!!!ARE: Europa, Mitteleuropa, Deutschland
!!!SCT: E0516
!!!TXL: @@DE
!!!YEM: Copyright 1995, estate of Helmut Schaffrath.
**kern	**text
*ICvox	*
*M3/4	*
*k[b-]	*
*F:	*
!LO:TX:a:t=Gemüthlich.	!
!LO:TX:a:t=Jn ganʒ Deutſchland ſeit 100 Jahren geſungen.	!
{8c	Jch
8f	hab
8g	ein
=1	=1
4.a	klei-
8b-/	-nes
8g	Hütt-
8a	-chen
=2	=2
4.f}	nur,
{8a	es
8a	ſteht
8b-/	auf
=3	=3
4.cc	ei-
8dd	-ner
8b-	Wie-
8cc	-ſen-
=4	=4
4a	-flur,
8r}	.
{8f	vor
8f	die-
8f	-ſem
=5	=5
4.dd	Hütt-
8dd	-chen
8ff	ſteht
8dd	ein
=6	=6
(4cc	Bach,
8a)}	.
{8cc	und
8cc	die-
8cc	-ſem
=7	=7
(4b-/	Bach
8g)	.
8cc	fließt
8cc	Lie-
8cc	-be
=8	=8
4a	nach.
8r}	.
{8f	vor
8f	die-
8f	-ſem
=9	=9
4.dd	Hütt-
8dd	-chen
8ff	ſteht
8dd	ein
=10	=10
(4cc	Bach,
8a)}	.
{8cc	und
8cc	die-
8cc	-ſem
=11	=11
(4b-/	Bach
8g)	.
8cc	fließt
8cc	Lie-
8cc	-be
=12	=12
4a	nach.
8r}	.
==	==
!!!AGN: Liebes - Lied
!!!ONB: ESAC (Essen Associative Code) Database: ERK1
!!!AMT: simple triple
!!!AIN: vox
!!!EED: Helmut Schaffrath
!!!EEV: 1.0
!!!GTL: Liebeslieder [Neuere (aus dem 18. bis 19. Jahrh.) - Liebeslust]
!!!URL-scan:
!!!ENC: Anna Maria Matuszewska
!!!EEV: 2024/10/12
*-	*-
